!!!OTL: Lebe wohl, vergi&szlig; mein nicht (97a), S. 246
!!!id: T0258
**kern
*clefG2
*k[]
*G:
{8g
=1
8g
4dd
4b
=2
4dd
4b
=3
8a
8b
8cc
8dd
=4
4cc
4b}
=5
{4dd
4b
=6
4dd
4b
=7
8a
8b
8cc
8dd
=8
4cc
4b}
=9
{4ee
4ee
=10
4ee
8dd
8cc
=11
8dd
8dd
8dd
8ee
=12
8dd
8cc
4b}
=13
{8a
8b
8cc
8dd
=14
4ee
8dd
8cc
=15
4dd
8b
8b
=16
4b}
4r
==
*-
!!!minrhy: 8
!!!meters: 2/4 ]  ZZ[4
!!!cut: Lebe wohl, vergi&szlig; mein nicht (97a), S. 246
!!!reg: Luxemburg
!!!trd: Singendes Volk, Esch-Alzette 1937 posth.
!!!rhy1:   X_X_  X_X_  XXXX  X_X_
!!!rhy2: X_X_  X_X_  XXXX  X_X_
!!!key: T0258  08  G 2/4 ]  ZZ[4
!!!mod: PENTATONIK ]  AMBITUS[5
!!!kad: 3333
!!!akz: 5524_5524_6655_2653_
!!!fot: 'a__a__b__c__
!!!for: 'a__a__b__c__
!!!fok: 'Sd_Sd_\__^a_
!! PHRAS[VOLLTAKTIG]
!!!fkt: Liebeslieder
!!!bem1: Lullingen, 1900, mitgeteilt: hhh Heinrich Godefroid (Lehrer);
!!!bem2: (97b)- Stegen, hhh Nikolaus Pletschette, 5.7.1919
!! THILL, Mathias:
!! PR[24] 2K[0] 2G[0] 3K[4] 3G[10] 4A[10] 4Ü[0] 5A[2] 6K[0] 6G[0]
!! 7K[0] 7G[0] 8A[0] MEHR[0] SI[26] ABS[50] SR[0] SP[26]
!! ST[12] 2k[4] 2g[30] 3k[12] 3g[4] 4d[0] 4ü[0] 5d[0] 6k[0] 6g[0]
!! 7k[0] 7g[0] 8d[0] mehr[0] si[50] dm[-24] sr[34] sp[16]
!! 1F[14] 2F[65] 3F[0] 4F[7] LF[0] 2P[11] 3P[4] 4P[0] TRI[0] DF[5] AB[57]
!! TF[0] U3K[0] U3[0] U4[0] U4Ü[0] U5[0] U6K[0] U6[0] U7K[0] U7[0]
!! N1[10] N2K[0] N2[8] N3K[0] N3[22] N4[6] N4Ü[0] N5[27] N6K[0] N6[14]
!!!n7k: 0] N7[10] O1[4] O2K[0] O2[0] O3K[0] O3[0] HÖ[0
!!!RNB: symbol: &szlig; = sz ligature (UTF-8: ÃŸ)
